X:8066
T:Whistle O'er the Lave O't
O:england
C:Attr J Bruce
N:Transposed from G for comparison
N:Transposed from 4/4 for comparison
R:Strathspey
M:2/4
L:1/8
K:A
A>E F<A|c>B c2|e>f c<a|BA F2|A>E F<A|c>B c<a|A<A c>A|B2 A2:|]
ef/g/ a>g|fe c2|e>f c<a|BA F2|ef/g/ a>g|fe c<a|A<A c>A|B2 A2|
ef/g/ a>g|fe c2|ef/g/ a>c'|ba f>g|a>c' f>a|e>f c<a|A<A c>A|B2 A2|]


